X:1
T:Wir sind die Moorsoldaten
T:Text und Musik von politischen Schutzhäftlingen, KZ Börgermoor, abgeschrieben von einem handschriftlichen Liedblatt. In anderen Quellen werden als Textautor Wolfgang Langhoff und und als Komponist R. Goguel angegeben.
T:Vermerk auf der Abschrift: "Als Lagerlied gesungen von August 1933 bis ????"
%%score [ 1 2 3 4 ]
L:1/8
M:4/4
K:D
V:1 treble nm="Soprano"
V:2 treble nm="Alto"
V:3 bass nm="Tenor"
V:4 bass nm="Bass"
V:1
 B2 B2 B2 dc | B2 F2 B2 B2 | c3 c c2 e2 | d2 c2 B4 | d2 d2 d2 fe | d2 A2 d2 d2 | f2 d2 e2 c2 | %7
w: 1.~Wo- hin auch das _|Au- ge blik- ket|Moor und Hei- de|nur rings- um,|Vo- gel- sang uns _|nicht er- quik- ket|Ei- chen ste- hen|
w: 2.~Hier in die- ser _|ö- den Hei- de|ist das La- ger|auf- ge- baut,|wo wir fern von _|je- der Freu- de|hin- ter Sta- chel-|
 d2 c2 B2 z A |: f2 f2 f2 d2 | e4 e2 z A | d3 d d2 B2 | c4 c2 z F |1 B4 z2 z A :|2 B6 z2 |] %14
w: kahl und krumm. 1.\-5.~Wir|sind die Moor- sol-|da- ten und|zie- hen mit dem|Spa- ten ins|Moor, wir|Moor.|
w: draht ver- staut. *|||||||
V:2
 F2 F2 F2 F2 | FE F2 F2 F2 | F3 F F2 ^A2 | B2 ^A2 G4 | A2 A2 A2 A2 | AG A2 A2 A2 | d2 B2 c2 A2 | %7
w: 3.~Mor- gens zie- hen|die _ Ko- lon- nen|in das Moor zur|Ar- beit hin,|Gra- ben bei dem|Brand _ der Son- ne,|doch zur Hei- mat|
w: 4.~Heim- wärts, heim- wärts|je- * der seh- net|zu den El- tern,|Weib und Kind.|Man- che Brust ein|Seuf- * zer deh- net,|weil wir hier ge-|
 B2 A2 B2 z A |: d2 d2 d2 d2 | c4 c2 z A | B3 B B2 B2 | F4 F2 z F |1 B4 z2 z F :|2 B6 z2 |] %14
w: steht der Sinn. *|||||||
w: fan- gen sind. *|||||||
V:3
 D,2 D,2 D,2 F,E, | D,C, D,2 D,2 D,2 | E,3 E, E,2 E,2 | F,2 F,2 F,4 | F,2 F,2 F,2 A,G, | %5
w: 5.~Auf und nie- der _|gehn _ die Po- sten|kein- ner, kei- ner|kann hin- durch.|Flucht wird nur das _|
w: 6.~Doch für uns gibt _|es _ kein Kla- gen,|e- wig kanns nicht|Win- ter sein.|Ein- mal wer- den _|
 F,E, F,2 F,2 F,2 | A,2 F,2 F,2 F,2 | F,2 F,2 D,2 z A,, |: A,3 A, A,2 A,2 | A,4 A,2 z A, | %10
w: Le- * ben ko- sten,|vier- fach ist um-|zäunt die Burg. *|||
w: froh _ wir sa- gen|Hei- mat, du bist|wie- der mein. 6.~Dann|ziehn die Moor- sol-|da- ten \-|
 F,2 F,2 F,2 F,2 | F,4 F,2 z F, |1 F,4 z2 z F, :|2 B,6 z2 |] %14
w: ||||
w: nicht mehr mit dem|Spa- ten ins|Moor, dann|Moor.|
V:4
 B,,2 B,,2 B,,2 B,,2 | B,,2 B,,2 B,,2 B,,2 | ^A,,3 A,, A,,2 A,,2 | B,,2 C,2 B,,4 | %4
 D,2 D,2 D,2 D,2 | D,2 D,2 D,2 D,2 | D,2 D,2 C,2 C,2 | C,2 C,2 B,,2 z A,, |: D,3 D, D,2 D,2 | %9
 C,4 C,2 z C, | B,,2 B,,2 B,,2 B,,2 | ^A,,4 A,,2 z A,, |1 B,,4 z2 z A,, :|2 B,,8 |] %14

